build/img/project/Icon-3.svg

<svg id="Icon-3" viewBox="0 0 72 72"  xmlns="http://www.w3.org/2000/svg">
<path fill-rule="evenodd" clip-rule="evenodd" d="M59.5197 54.5793C59.5197 64.4673 45.9597 65.6103 35.7627 65.6103L35.033 65.6097C28.5363 65.5939 11.9997 65.1838 11.9997 54.5193C11.9997 44.8331 25.0148 43.5386 35.1341 43.4898L36.4924 43.489C42.9886 43.5048 59.5197 43.9149 59.5197 54.5793ZM35.7627 47.9883C22.9797 47.9883 16.4997 50.1843 16.4997 54.5193C16.4997 58.8933 22.9797 61.1103 35.7627 61.1103C48.5427 61.1103 55.0197 58.9143 55.0197 54.5793C55.0197 50.2053 48.5427 47.9883 35.7627 47.9883ZM35.7627 5.99915C44.5467 5.99915 51.6897 13.1451 51.6897 21.9291C51.6897 30.7131 44.5467 37.8561 35.7627 37.8561H35.6667C26.9007 37.8291 19.7997 30.6801 19.8296 21.9201C19.8296 13.1451 26.9757 5.99915 35.7627 5.99915ZM35.7627 10.2831C29.3397 10.2831 24.1136 15.5061 24.1136 21.9291C24.0927 28.3311 29.2797 33.5511 35.6757 33.5751L35.7627 35.7171V33.5751C42.1827 33.5751 47.4057 28.3491 47.4057 21.9291C47.4057 15.5061 42.1827 10.2831 35.7627 10.2831Z"/>
</svg>

<svg id="Icon-3" viewBox="0 0 72 72" xmlns="http://www.w3.org/2000/svg"><path fill-rule="evenodd" clip-rule="evenodd" d="M59.52 54.58c0 9.887-13.56 11.03-23.757 11.03h-.73C28.536 65.594 12 65.184 12 54.52c0-9.687 13.015-10.981 23.134-11.03l1.358-.001c6.497.016 23.028.426 23.028 11.09zm-23.757-6.592c-12.783 0-19.263 2.196-19.263 6.531 0 4.374 6.48 6.591 19.263 6.591 12.78 0 19.257-2.196 19.257-6.53 0-4.375-6.477-6.592-19.257-6.592zm0-41.989c8.784 0 15.927 7.146 15.927 15.93 0 8.784-7.143 15.927-15.927 15.927h-.096C26.9 37.83 19.8 30.68 19.83 21.92 19.83 13.145 26.976 6 35.763 6zm0 4.284c-6.423 0-11.65 5.223-11.65 11.646-.02 6.402 5.167 11.622 11.563 11.646l.087 2.142v-2.142c6.42 0 11.643-5.226 11.643-11.646 0-6.423-5.223-11.646-11.643-11.646z"/></svg>9757 5.99915 35.7627 5.99915ZM35.7627 10.2831C29.3397 10.2831 24.1136 15.5061 24.1136 21.9291C24.0927 28.3311 29.2797 33.5511 35.6757 33.5751L35.7627 35.7171V33.5751C42.1827 33.5751 47.4057 28.3491 47.4057 21.9291C47.4057 15.5061 42.1827 10.2831 35.7627 10.2831Z"/>
</svg>
